X: 277
T:The Blackberry Blossom
N: page 92
N: heptatonic
R:reel
E:7
M:C|
I:speed 350
K:G
ge|"G"dBAc BAGA|~B3A B2ge|dBAc BAG2|\
"Am"eaag a2 ge|"G"dBAc BAGA|
~B3A B2 ge|dBAc BAG2|"Am"eaag a2||\
ef|"G"~g3f gaba|"C"~g3b "D7"agef|
"G"~g3f ga~a2|"Am"ea~a2 agef|"G"~g3f gaba|\
"C"~g3b "D7"a2 ga|"G"bagf "D7"gfed|"Am"eaag a2|
